src/actions/24/color-mode-invert-image.svg

<!DOCTYPE svg>
<svg xmlns="http://www.w3.org/2000/svg" version="1.1" viewBox="0 0 24 24" width="24" height="24">
  <defs>
    <style id="current-color-scheme" type="text/css">
            .ColorScheme-Text {
                color:#363636;
            }
        </style>
  </defs>
  <g transform="translate(1,1)">
    <path class="ColorScheme-Text" style="fill:currentColor; fill-opacity:1; stroke:none" d="M 11 4 L 11 12.9922 L 13.9941 10 L 14 10.0078 L 14.0078 10 L 17 12.9922 L 16.293 13.6992 L 14 11.4063 L 11.3555 14.0508 L 11 14.4063 L 11 18 L 18 18 L 18 4 L 11 4 Z M 9.29297 12 L 5 16.293 L 5.70703 17 L 9.29883 13.4082 L 9.94141 14.0508 L 10.6484 14.7578 L 11 14.4063 L 11 12.9922 L 10.6484 13.3438 L 9.30664 12 L 9.30064 12.0078 L 9.29297 12 Z M 7.5 6 C 8.331 6 9 6.669 9 7.5 C 9 8.331 8.331 9 7.5 9 C 6.669 9 6 8.331 6 7.5 C 6 6.669 6.669 6 7.5 6 Z M 7.5 5 C 6.115 5 5 6.115 5 7.5 C 5 8.885 6.115 10 7.5 10 C 8.885 10 10 8.885 10 7.5 C 10 6.115 8.885 5 7.5 5 Z M 4 4 L 18 4 L 18 18 L 4 18 L 4 4 Z M 3 3 L 3 19 L 19 19 L 19 3 L 3 3 Z"/>
  </g>
</svg>

<svg xmlns="http://www.w3.org/2000/svg" width="24" height="24">
    <path d="M11 4v8.992L13.994 10l.006.008.008-.008L17 12.992l-.707.707L14 11.406l-2.645 2.645-.355.355V18h7V4h-7Zm-1.707 8L5 16.293l.707.707 3.592-3.592.642.643.707.707.352-.352v-1.414l-.352.352L9.307 12l-.006.008L9.293 12ZM7.5 6C8.331 6 9 6.669 9 7.5S8.331 9 7.5 9 6 8.331 6 7.5 6.669 6 7.5 6Zm0-1A2.495 2.495 0 0 0 5 7.5C5 8.885 6.115 10 7.5 10S10 8.885 10 7.5 8.885 5 7.5 5ZM4 4h14v14H4V4ZM3 3v16h16V3H3Z" style="fill:currentColor;fill-opacity:1;stroke:none;color:#050505;opacity:.7" transform="translate(1 1)"/>
</svg>
